src/topics/icons/floydhub.svg

<?xml version="1.0" encoding="UTF-8"?>
<svg width="256px" height="256px" viewBox="0 0 256 256" version="1.1" xmlns="http://www.w3.org/2000/svg" xmlns:xlink="http://www.w3.org/1999/xlink" preserveAspectRatio="xMidYMid">
    <g>
        <path d="M208.418,208.418 C186.938,229.898 158.378,241.728 128,241.728 C97.622,241.728 69.063,229.898 47.582,208.418 C26.102,186.938 14.272,158.378 14.272,128 C14.272,97.622 26.102,69.063 47.582,47.582 C69.063,26.102 97.622,14.272 128,14.272 C158.378,14.272 186.938,26.102 208.418,47.582 C229.898,69.063 241.728,97.622 241.728,128 C241.728,158.378 229.898,186.938 208.418,208.418 M245.938,78.174 C239.491,62.931 230.263,49.243 218.51,37.49 C206.757,25.737 193.068,16.509 177.826,10.062 C162.041,3.385 145.277,0 128,0 C110.723,0 93.96,3.385 78.174,10.062 C62.931,16.509 49.243,25.737 37.49,37.49 C25.737,49.243 16.509,62.931 10.062,78.174 C3.385,93.96 0,110.723 0,128 C0,145.277 3.385,162.041 10.062,177.826 C16.509,193.068 25.737,206.757 37.49,218.51 C49.243,230.263 62.931,239.491 78.174,245.938 C93.96,252.614 110.723,256 128,256 C145.277,256 162.041,252.614 177.826,245.938 C193.068,239.491 206.757,230.263 218.51,218.51 C230.263,206.757 239.491,193.068 245.938,177.826 C252.615,162.041 256,145.277 256,128 C256,110.723 252.615,93.96 245.938,78.174 M187.9917,40.4903 L78.8127,40.4903 L78.8127,208.3623 C78.8127,211.3173 81.2087,213.7143 84.1647,213.7143 C87.1207,213.7143 89.5167,211.3173 89.5167,208.3623 L89.5167,143.6033 L166.7627,143.6033 C169.7187,143.6033 172.1147,141.2073 172.1147,138.2523 C172.1147,135.2963 169.7187,132.9003 166.7627,132.9003 L89.5167,132.9003 L89.5167,123.0883 L165.6927,123.0883 C168.6477,123.0883 171.0437,120.6923 171.0437,117.7363 C171.0437,114.7803 168.6477,112.3843 165.6927,112.3843 L89.5167,112.3843 L89.5167,51.1943 L187.9917,51.1943 C190.9477,51.1943 193.3437,48.7983 193.3437,45.8423 C193.3437,42.8863 190.9477,40.4903 187.9917,40.4903" fill="#3B99ED"></path>
    </g>
</svg>

<svg height="256" preserveAspectRatio="xMidYMid" viewBox="0 0 256 256" width="256" xmlns="http://www.w3.org/2000/svg"><path d="m208.418 208.418c-21.48 21.48-50.04 33.31-80.418 33.31s-58.937-11.83-80.418-33.31c-21.48-21.48-33.31-50.04-33.31-80.418s11.83-58.937 33.31-80.418c21.481-21.48 50.04-33.31 80.418-33.31s58.938 11.83 80.418 33.31c21.48 21.481 33.31 50.04 33.31 80.418s-11.83 58.938-33.31 80.418m37.52-130.244c-6.447-15.243-15.675-28.931-27.428-40.684s-25.442-20.981-40.684-27.428c-15.785-6.677-32.549-10.062-49.826-10.062s-34.04 3.385-49.826 10.062c-15.243 6.447-28.931 15.675-40.684 27.428s-20.981 25.441-27.428 40.684c-6.677 15.786-10.062 32.549-10.062 49.826s3.385 34.041 10.062 49.826c6.447 15.242 15.675 28.931 27.428 40.684s25.441 20.981 40.684 27.428c15.786 6.676 32.549 10.062 49.826 10.062s34.041-3.386 49.826-10.062c15.242-6.447 28.931-15.675 40.684-27.428s20.981-25.442 27.428-40.684c6.677-15.785 10.062-32.549 10.062-49.826s-3.385-34.04-10.062-49.826m-57.9463-37.6837h-109.179v167.872c0 2.955 2.396 5.352 5.352 5.352s5.352-2.397 5.352-5.352v-64.759h77.246c2.956 0 5.352-2.396 5.352-5.351 0-2.956-2.396-5.352-5.352-5.352h-77.246v-9.812h76.176c2.955 0 5.351-2.396 5.351-5.352s-2.396-5.352-5.351-5.352h-76.176v-61.19h98.475c2.956 0 5.352-2.396 5.352-5.352s-2.396-5.352-5.352-5.352" fill="#3b99ed"/></svg>
